X:49
T:Quick Step,The,#46. JBs.049
S:Jas.Blackshaw MS, 1837, N.Shropshire
Z:Tony Weatherall 2006
M:2/4
L:1/16
Q:1/4=90
A:North Shropshire
R:Country Dance
K:F
c2|fefg f2f2|efge c2e2|f2fe fgab|câ€™2câ€™2 câ€™2dâ€™câ€™|!
b2câ€™b a2ba|g2gf e2g2|=bagf egfd|c2c2 c2::!
cd|e2ef g2g2|gagf e2c2|f2fg a2ab|câ€™2fâ€™2 câ€™2cd|!
e2ef g2g2|gggf e2c2|f2f2 efge|f2f2 f2::!
K:C Maj
G2|c2cB c2cB|c2d2e2c2|f3ed2c2|BcdB G2AB|!
c2cB c2cB|cBcd e2e2|d3c BcAB|G2G2 G2:|
K:F Maj

